img/iconspace_Group.svg

<svg width="64" height="64" viewBox="0 0 64 64" fill="none" xmlns="http://www.w3.org/2000/svg">
<g id="iconspace_Group">
<path id="Shape" fill-rule="evenodd" clip-rule="evenodd" d="M32 64C49.6731 64 64 49.6731 64 32C64 14.3269 49.6731 0 32 0C14.3269 0 0 14.3269 0 32C0 49.6731 14.3269 64 32 64Z" fill="#E6F0FC"/>
<path id="Shape_2" d="M15 16C15 15.4477 15.4477 15 16 15H48C48.5523 15 49 15.4477 49 16V48C49 48.5523 48.5523 49 48 49H16C15.4477 49 15 48.5523 15 48V16Z" fill="#154E84"/>
<path id="Shape_3" d="M17 17V47H47V17H17Z" fill="white"/>
<path id="Shape_4" d="M11 12C11 11.4477 11.4477 11 12 11H20C20.5523 11 21 11.4477 21 12V20C21 20.5523 20.5523 21 20 21H12C11.4477 21 11 20.5523 11 20V12Z" fill="#154E84"/>
<path id="Shape_5" d="M13 13V19H19V13H13Z" fill="#FFC200"/>
<path id="Shape_6" d="M43 12C43 11.4477 43.4477 11 44 11H52C52.5523 11 53 11.4477 53 12V20C53 20.5523 52.5523 21 52 21H44C43.4477 21 43 20.5523 43 20V12Z" fill="#154E84"/>
<path id="Shape_7" d="M45 13V19H51V13H45Z" fill="#52ABE2"/>
<path id="Shape_8" d="M11 44C11 43.4477 11.4477 43 12 43H20C20.5523 43 21 43.4477 21 44V52C21 52.5523 20.5523 53 20 53H12C11.4477 53 11 52.5523 11 52V44Z" fill="#154E84"/>
<path id="Shape_9" d="M13 45V51H19V45H13Z" fill="#52ABE2"/>
<path id="Shape_10" d="M43 44C43 43.4477 43.4477 43 44 43H52C52.5523 43 53 43.4477 53 44V52C53 52.5523 52.5523 53 52 53H44C43.4477 53 43 52.5523 43 52V44Z" fill="#154E84"/>
<path id="Shape_11" d="M45 45V51H51V45H45Z" fill="#FFC200"/>
</g>
</svg>

<svg width="64" height="64" fill="none" xmlns="http://www.w3.org/2000/svg"><path fill-rule="evenodd" clip-rule="evenodd" d="M32 64c17.673 0 32-14.327 32-32C64 14.327 49.673 0 32 0 14.327 0 0 14.327 0 32c0 17.673 14.327 32 32 32Z" fill="#E6F0FC"/><path d="M15 16a1 1 0 0 1 1-1h32a1 1 0 0 1 1 1v32a1 1 0 0 1-1 1H16a1 1 0 0 1-1-1V16Z" fill="#154E84"/><path d="M17 17v30h30V17H17Z" fill="#fff"/><path d="M11 12a1 1 0 0 1 1-1h8a1 1 0 0 1 1 1v8a1 1 0 0 1-1 1h-8a1 1 0 0 1-1-1v-8Z" fill="#154E84"/><path d="M13 13v6h6v-6h-6Z" fill="#FFC200"/><path d="M43 12a1 1 0 0 1 1-1h8a1 1 0 0 1 1 1v8a1 1 0 0 1-1 1h-8a1 1 0 0 1-1-1v-8Z" fill="#154E84"/><path d="M45 13v6h6v-6h-6Z" fill="#52ABE2"/><path d="M11 44a1 1 0 0 1 1-1h8a1 1 0 0 1 1 1v8a1 1 0 0 1-1 1h-8a1 1 0 0 1-1-1v-8Z" fill="#154E84"/><path d="M13 45v6h6v-6h-6Z" fill="#52ABE2"/><path d="M43 44a1 1 0 0 1 1-1h8a1 1 0 0 1 1 1v8a1 1 0 0 1-1 1h-8a1 1 0 0 1-1-1v-8Z" fill="#154E84"/><path d="M45 45v6h6v-6h-6Z" fill="#FFC200"/></svg>
